X:1
T:Kesäillalla
T:Kesäillalla
T:SATB
T:Suom. kansanl.
C:Suom. kansanl.
%%score [ 1 2 3 4 ]
L:1/8
M:4/4
K:Bb
V:1 treble nm="Soprano" snm="S."
V:2 treble nm="Alto" snm="A."
V:3 bass nm="Tenor" snm="T."
V:4 bass nm="Bass" snm="B."
V:1
!mf! D!<(!E | F2 F2 D2 F F | B2 B2 B2!<)! AB |!>(! c2 c2 A2 A2!>)! | G4 z2!p! CD | %5
w: Kun *|kä- ve- lin ke- sä-|il- lal- la, näin *|nii- tyn vi- her-|jän, Ja *|
w: Ne *|on- ne- a mul- le|muis- tut- ti, min- kä|mui- noin o- mis-|tin, Kun *|
!<(! E2 E E C2 E2 | G4!<)! G2 A A |!>(! F2 F F E2 E E!>)! | D4 z2 D!<(! E | F2 F F D2 F2!<)! | %10
w: lin- tu- jen ää- nen|hil- jaa kuu- lin|met- säs- sä vi- ser- tä-|vän. La- la|lal- la- la lal- lal|
w: leh- dos- sa kah- den-|kes- ken kans- sa|kul- ta- ni ku- jer- te-|lin. * *||
!>(! d6!>)!!f! c c |!>(! B2 B B A2 A2!>)! | G4 z2!p! CD |!<(! E2 E E C2 E2 | G4!<)! G2 A A | %15
w: lei, la- la-|lal- la- la- lal- lal-|lei, Ja *|lin- tu- jen ää- nen|hil- jaa kuu- lin|
w: ||* Kun *|leh- dos- sa kah- den-|kes- ken kans- sa|
!>(! F2 F F E2 E E!>)! |!p! D4 z4 |] %17
w: met- säs- sä vi- ser- tä-|vän.|
w: kul- ta- ni ku- jer- te-|lin.|
V:2
!mf! B,!<(!C | D2 D2 B,2 D D | F2 F2 F2!<)! F2 |!>(! G2 G2 F2 F2!>)! | (ED C2) z2!p! C2 | %5
w: Kun *|kä- ve- lin ke- sä-|il- lal- la, näin|nii- tyn vi- her-|jän, * * Ja|
w: Ne *|on- ne- a mul- le|muis- tut- ti, minkä|mui- noin o- mis-|tin, * * Kun|
!<(! C2 C C C2 C2 | E4!<)! E2 E E |!>(! D2 D D C2 C C!>)! | B,4 z2 B,!<(! C | D2 D D B,2 D2!<)! | %10
w: lin- tu- jen ää- nen|hil- jaa kuu- lin|met- säs- sä vi- ser- tä-|vän. La- la|lal- la- la lal- lal|
w: leh- dos- sa kah- den-|kes- ken kans- sa|kul- ta- ni ku- jer- te-|lin. * *||
!>(! F6!>)!!f! ^F F |!>(! G2 D D F2 F2!>)! | E4 z2!p! C2 |!<(! C2 C C C2 C2 | E4!<)! E2 E E | %15
w: lei, la- la-|lal- la- la- lal- lal-|lei, Ja|lin- tu- jen ää- nen|hil- jaa kuu- lin|
w: ||* Kun|leh- dos- sa kah- den-|kes- ken kans- sa|
!>(! D2 D D C2 B, B,!>)! |!p! A,4 z4 |] %17
w: met- säs- sä vi- ser- tä-|vän.|
w: kul- ta- ni ku- jer- te-|lin.|
V:3
!mf! B,2 | B,2 B,2 B,2 B, B, | D2 D2 D2 CD |!>(! E2 E2 C2 D2!>)! | (B,2 G,2) z2!p! G,2 | %5
w: Kun|kä- ve- lin ke- sä-|il- lal- la, näin *|nii- tyn vi- her-|jän, * Ja|
w: Ne|on- ne- a mul- le|muis- tut- ti, min- kä|mui- noin o- mis-|tin, * Kun|
!<(! G,2 G, G, G,2 G,2 | C4!<)! C2 C C |!>(! A,2 B, B, G,2 A, A,!>)! | F,4 z2 z2 | z4 z2 B, B, | %10
w: lin- tu- jen ää- nen|hil- jaa kuu- lin|met- säs- sä vi- ser- tä-|vän.|La- la-|
w: leh- dos- sa kah- den-|kes- ken kans- sa|kul- ta- ni ku- jer- te-|lin.||
 (B,4 D2)!f! D D |!>(! D2 B, B, B,2 B, B,!>)! | B,2 =B,2 C2!p! G,2 |!<(! G,2 G, G, G,2 G,2 | %14
w: lei, _ la- la-|lal- la- la- lal- la- la|lal- lal- lei, Ja|lin- tu- jen ää- nen|
w: ||* * * Kun|leh- dos- sa kah- den-|
 C4!<)! C2 C C |!>(! DC B, A, G,2 G, G,!>)! |!p! ^F,4 z4 |] %17
w: hil- jaa kuu- lin|met- * säs- sä vi- ser- tä-|vän.|
w: kes- ken kans- sa|kul- * ta- ni ku- jer- te-|lin.|
V:4
!mf! B,,2 | B,2 B,2 F,2 D, D, | B,,2 B,,2 B,,2 E,D, |!>(! C,2 C,2 F,2 D,2!>)! | E,4 z2!p! E,D, | %5
w: Kun|kä- ve- lin ke- sä-|il- lal- la, näin *|nii- tyn vi- her-|jän, Ja *|
w: Ne|on- ne- a mul- le|muis- tut- ti, min- kä|mui- noin o- mis-|tin, Kun *|
!<(! C,2 C, C, E,3 D, | C,4!<)! C,2 C, C, |!>(! D,2 B,, B,, C,2 F,, F,,!>)! | B,,4 z2 z2 | z8 | %10
w: lin- tu- jen ää- nen|hil- jaa kuu- lin|met- säs- sä vi- ser- tä-|vän.||
w: leh- dos- sa kah- den-|kes- ken kans- sa|kul- ta- ni ku- jer- te-|lin.||
 z B,, D, F, B,2!f! A, A, |!>(! G,2 G, G, D,2 D, D,!>)! | E,2 D,2 C,2!p! E,D, | %13
w: la- la- la- lal- la- la|lal- la- la lal- la- la|lal- lal- lei, Ja *|
w: ||* * * Kun *|
!<(! C,2 C, C, E,3 D, | C,4!<)! C,2 F,, F,, |!>(! B,,2 B,, B,, C,2 C, C,!>)! |!p! D,4 z4 |] %17
w: lin- tu- jen ää- nen|hil- jaa kuu- lin|met- säs- sä vi- ser- tä-|vän.|
w: leh- dos- sa kah- den-|kes- ken kans- sa|kul- ta- ni ku- jer- te-|lin.|

